X: 11
T:Kreutzer Exercise 
C:
N:Transcribed by rik dias
L:1/8
Q:1/4=120
M:4/4
K:C
z8 | c/e/g/f/ e/f/d/e/ c/e/g/f/ e/f/d/e/ | c/e/g/f/ e/f/d/e/ c/d/e/d/ c/d/B/c/ | 
A/c/e/d/ c/d/B/c/ A/c/e/d/ c/d/B/c/ | A/c/e/d/ c/d/B/c/ A/B/c/B/ A/B/G/A/ | F/A/c/_B/ A/=B/G/A/ F/A/d/c/ B/c/A/B/ | 
G/B/d/c/ B/c/A/B/ G/B/e/d/ c/d/B/c/ | A/c/e/d/ c/d/B/c/ A/c/f/e/ d/e/c/d/ | B/d/f/e/ d/e/c/d/ B/d/g/f/ e/f/d/e/ | 
c/e/g/f/ e/f/g/e/ a/A/B/c/ d/e/f/d/ | g/G/A/B/ c/d/e/c/ f/F/G/A/ B/c/d/B/ | e/E/F/G/ A/B/c/A/ d/D/E/F/ G/A/B/G/ | 
c/C/D/E/ F/A/B/c/ d/D/E/F/ G/B/c/d/ | e/E/F/G/ A/c/d/e/ f/F/G/A/ B/d/e/f/ | g/G/A/B/ c/e/f/g/ a/A/B/c/ d/f/g/a/ | 
b/B/c/d/ e/g/a/b/ c'/c/d/e/ f/a/b/c'/ | d'/d/e/f/ g/G/g/f/ e/c/d/e/ f/F/f/e/ | 
d/B/c/d/ e/E/e/d/ c/A/B/c/ d/D/d/c/ | B/G/A/B/ c/d/e/c/ f/d/e/f/ g/G/A/B/ | c/g/^f/g/ e/g/d/g/ c/e/d/e/ c/e/B/e/ | 
A/a/^g/a/ f/a/e/a/ d/f/e/f/ d/f/c/f/ | B/b/a/b/ g/b/f/b/ e/g/^f/g/ e/g/d/g/ | 
c/E/F/G/ A/D/E/F/ G/g/e/c/ B/G/F/D/ | C/F/E/A/ G/B/c/f/ e/g/e/c/ B/G/F/D/ | C/F/E/A/ G/B/c/f/ e/g/e/c/ B/G/F/D/ | 
C/E/G/B/ c/e/g/c'/ c4 |

